!!!OTL: KOMPT HER IHR LIEBEN SCHWESTERLEIN
!!!ARE: Europa, Mitteleuropa, Deutschland
!!!SCT: E0940
!!!YEM: Copyright 1995, estate of Helmut Schaffrath.
**kern
*ICvox
*Ivox
*M4/4
*k[b-]
*F:
{4f
=1
4cc
4cc
4cc
4cc
=2
4dd
8cc
8b-
4a}
{4a
=3
4b-
4cc
4dd
4dd
=4
2cc
4r}
{4cc
=5
4cc
4cc
4cc
4a
=6
4cc
8b-
8a
4g}
{4cc
=7
4a
8g
8f
4g
4g
=8
2f}
{2a
=9
4cc
8b-
8a
4g
4g
=10
2.f}
==
!!!AGN: Tanz - Lied, Reigen, geistlich; Abend
!!!ONB: ESAC (Essen Associative Code) Database: ERK2
!!!AMT: simple quadruple
!!!AIN: vox
!!!EED: Helmut Schaffrath
!!!EEV: 1.0
*-
